!!!OTL: Die vergebliche Warnung (80a), S. 218,
!!!id: T0231
**kern
*clefG2
*k[]
*C:
{8g
=1
8g
8g
8g
8g
8f
8e
=2
2d}
8r
=3
{8a
=4
8a
8a
8a
8a
8g
8f
=5
2e}
8r
=6
{8c
=7
8c
8e
4g
4cc
=8
4a
8cc}
=9
{8a
8g
8e
=10
4g
8g
8f
8e}
==
*-
!!!minrhy: 8
!!!meters: 3/4 ]  ZZ[4
!!!cut1: Die vergebliche Warnung (80a), S. 218,
!!!cut2: 1. Melodie
!!!reg: Luxemburg
!!!trd: Singendes Volk, Esch-Alzette 1937 posth.
!!!rhy1: X  XXXXXX  X__0
!!!rhy2: X  XXXXXX  X__0
!!!key: T0231  08  C 3/4 ]  ZZ[4
!!!mod: SECHSTONSKALA DUR ?]  AMBITUS[8
!!!kad: 23+13
!!!akz: 52_63_16_5_
!!!fot: 'a__as_b__c__
!!!for: 'a__a__b__c__
!!!fok: '\__\__/__\__
!! PHRAS[AUFTAKTIG]
!!!fkt: Liebeslieder
!!!bem: Rosport, fff Maria Schiltz, 8.3.1934
!! THILL, Mathias:
!! PR[53] 2K[2] 2G[14] 3K[6] 3G[0] 4A[2] 4Ü[0] 5A[2] 6K[0] 6G[0]
!! 7K[0] 7G[0] 8A[0] MEHR[0] SI[25] ABS[51] SR[16] SP[10]
!! ST[16] 2k[6] 2g[10] 3k[2] 3g[2] 4d[0] 4ü[0] 5d[2] 6k[0] 6g[0]
!! 7k[0] 7g[0] 8d[0] mehr[0] si[22] dm[+3] sr[16] sp[6]
!! 1F[88] 2F[11] 3F[0] 4F[0] LF[0] 2P[2] 3P[0] 4P[0] TRI[0] DF[3] AB[56]
!! TF[0] U3K[0] U3[0] U4[0] U4Ü[0] U5[4] U6K[0] U6[0] U7K[0] U7[0]
!! N1[12] N2K[0] N2[27] N3K[0] N3[23] N4[10] N4Ü[0] N5[23] N6K[0] N6[2]
!!!n7k: 0] N7[0] O1[0] O2K[0] O2[0] O3K[0] O3[0] HÖ[0
